!!!COM:	Josquin des Prez
!!!CDT:	~1450-1521/08/27
!!!OPR:	Missa Faisant regretz
!!!ONM:	1
!!!OTL:	Kyrie
!!!AGN:	Mass; Kyrie
!!!SCT:	NJE 8.1
!!!SCA:	New Josquin Edition 8.1
!!!voices:	4
!!!voices-OPR:	4
**kern	**kern	**kern	**kern
*staff4	*staff3	*staff2	*staff1
*Ivox	*Ivox	*Ivox	*Ivox
*I"Bassus	*I"Tenor	*I"Altus	*I"Superius
*I'B	*I'T	*I'A	*I'S
*>[A,B,C]	*>[A,B,C]	*>[A,B,C]	*>[A,B,C]
*>Kyrie1[A]	*>Kyrie1[A]	*>Kyrie1[A]	*>Kyrie1[A]
*>Christe[B]	*>Christe[B]	*>Christe[B]	*>Christe[B]
*>Kyrie2[C]	*>Kyrie2[C]	*>Kyrie2[C]	*>Kyrie2[C]
*clefF4	*clefGv2	*clefGv2	*clefG2
*k[b-]	*k[b-]	*k[b-]	*k[b-]
*>A	*>A	*>A	*>A
*M3/1	*M3/1	*M3/1	*M3/1
*met(O)	*met(O)	*met(O)	*met(O)
=1-	=1-	=1-	=1-
!!section: Kyrie I
!!!OMD: Kyrie I
1F	0.r	0.r	0.r
1D	.	.	.
1E	.	.	.
=2	=2	=2	=2
1D	0.r	1d	0.r
2r	.	2e-i\	.
2F\	.	1d	.
2D\	.	.	.
2E\	.	2c\	.
=3	=3	=3	=3
2D\	0.r	0d	0.r
1F	.	.	.
2D\	.	.	.
1E	.	1G	.
=4	=4	=4	=4
0D	1f	1A	0.r
.	1d	1B-	.
1C	1e	1c	.
=5	=5	=5	=5
2D\	1d	2A/	1dd
2BB-/	.	2d\	.
2C/	2r	2c\	2ee-i\
2D\	2f\	2A/	1dd
2r	2d\	2B-\	.
2AA/	2e\	2A/	2cc\
=6	=6	=6	=6
0BB-	2d\	2r	0dd
.	1f	1.d	.
.	2d\	.	.
1C	1e	2.c\	1g
.	.	4B-\	.
=7	=7	=7	=7
2D\	1d	2A/	2r
2GG/	.	2G/	2b-\
2AA/	2r	1F	2cc\
2BB-/	2B-\	.	2dd\
1C	2G/	2r	4ee-i\
.	.	.	4dd\
.	[2A/	2E/	4cc\
.	.	.	4b-\
=8	=8	=8	=8
2D\	2A/]	2F/	2a/
2GG/	2G/	2G/	2.b-\
2.BB-/	2r	2D/	.
.	.	.	4a/
.	1B-	1d	2g/
4C/	.	.	.
2D\	.	.	2f/
2E-i\	2G/	2c\	[2g/
=9	=9	=9	=9
1D	1A	2.d\	2g/]
.	.	.	2f#i/
.	.	4c\	.
2.E-i\	1G	4B-\	2g/
.	.	4A/	.
.	.	2G/	2b-\
4D\	.	.	.
2C/	2r	2r	2cc\
2BB-/	2B-\	2d\	2dd\
=10	=10	=10	=10
1C	2G/	4c\	4ee-i\
.	.	4B-\	4dd\
.	1A	4A/	4cc\
.	.	4G/	4b-\
2D\	.	2F/	2a/
2GG/	2G/	2G/	2.b-\
2.BB-/	2r	2D/	.
.	.	.	4a/
.	[2B-\	[2d\	2g/
4C/	.	.	.
=11	=11	=11	=11
2D\	2B-\]	2d\]	2f/
2E-i\	2G/	2c\	1g
1D	1A	0d	.
.	.	.	2f#i/
2r	1G	.	2g/
2GG/	.	.	[2b-\
=12	=12	=12	=12
2.BB-/	2r	2r	4b-\]
.	.	.	4a/
.	1B-	1d	2g/
4C/	.	.	.
2D\	.	.	2f/
2E-i\	2G/	2c\	1g
1D	1A	[1dl	.
.	.	.	2f#i/
=13	=13	=13	=13
0.GGl	0.Gl	0.d]	0.gl
!!LO:LB:i:g=z
=14||	=14||	=14||	=14||
*>B	*>B	*>B	*>B
!!section: Christe
!!!OMD: Christe
*M2/1	*M2/1	*M2/1	*M2/1
*met(C|)	*met(C|)	*met(C|)	*met(C|)
0r	0r	0r	0g
=15	=15	=15	=15
0r	0r	0d	0f
=16	=16	=16	=16
0r	0r	0c	0cc
=17	=17	=17	=17
0r	0r	0g	1.b-
.	.	.	4a/
.	.	.	4g/
=18	=18	=18	=18
0r	0r	1.f	2.a/
.	.	.	4b-\
.	.	.	4cc\
.	.	.	4dd\
.	.	2e\	[2cc\
=19	=19	=19	=19
0r	0r	1f	2cc\]
.	.	.	2a/
.	.	1g	2b-\
.	.	.	2g/
=20	=20	=20	=20
0r	0r	2f\	2.a/
.	.	2d\	.
.	.	.	4b-\
.	.	2f\	2a/
.	.	[2e\	[2g/
=21	=21	=21	=21
0r	0r	4e\]	4g/]
.	.	4d\	4f/
.	.	1d	4e/
.	.	.	4d/
.	.	.	1e
.	.	2c#i\	.
=22	=22	=22	=22
[0D	1r	[0d	0d
.	[1f	.	.
=23	=23	=23	=23
0D]	1f]	0d]	1r
.	1d	.	1f
=24	=24	=24	=24
0C	0e	0r	1.g
.	.	.	2a/
=25	=25	=25	=25
0G	0d	0r	0b-
=26	=26	=26	=26
1F	1f	0r	1a
[1G	1d	.	1b-
=27	=27	=27	=27
0G]	1e	0r	1g
.	1d	.	1b-
=28	=28	=28	=28
1F	1f	0r	1a
[1G	1d	.	1b-
=29	=29	=29	=29
1G]	0e	0r	1.g
1C	.	.	.
.	.	.	2a/
=30	=30	=30	=30
0G	[0d	0r	0b-
=31	=31	=31	=31
1F	0d]	0r	1a
[1G	.	.	[1b-
=32	=32	=32	=32
0G]	1B-	[0d	2b-\]
.	.	.	4a/
.	.	.	4g/
.	1G	.	1b-
=33	=33	=33	=33
1F	1A	0d]	1a
1G	[1G	.	1b-
=34	=34	=34	=34
1C	1G]	1.e-	1g
1G	1B-	.	2r
.	.	2d\	[2b-\
=35	=35	=35	=35
2r	1G	1.d	4b-\]
.	.	.	4a/
2G\	.	.	2g/
2D\	[1A	.	2f/
[2F\	.	2c\	[2a/
=36	=36	=36	=36
1F]	1A]	1.c	4a/]
.	.	.	4g/
.	.	.	2f/
2C/	1G	.	2e/
[2E-i\	.	2B-\	[2g/
=37	=37	=37	=37
1E-]	1r	1.B-	4g/]
.	.	.	4f/
.	.	.	2e/
2BB-/	1F	.	2d/
[2D\	.	2A/	[2f/
=38	=38	=38	=38
1D]	1D	1.A	4f/]
.	.	.	4e/
.	.	.	2d/
2AA/	[1E	.	2.c/
[2C/	.	2G/	.
.	.	.	4d/
=39	=39	=39	=39
1C]	1E]	1G	4e/
.	.	.	4f/
.	.	.	2.g/
1GG	1D	1B-	.
.	.	.	4a/
.	.	.	4b-\
.	.	.	4g/
=40	=40	=40	=40
0D	1F	2.A/	2a/
.	.	.	2.f/
.	.	4G/	.
.	1D	2A/	.
.	.	.	4e/
.	.	2B-\	[2d/
=41	=41	=41	=41
0r	1E	1G	2d/]
.	.	.	2c/
.	1D	1B-	1d
=42	=42	=42	=42
0r	1F	1A	1c
.	1D	[1B-	1d
=43	=43	=43	=43
0r	0E	2B-\]	0G
.	.	2A/	.
.	.	[1G	.
=44	=44	=44	=44
0r	[0Dl	2G/]	0A
.	.	4F#i/	.
.	.	4E/	.
.	.	2.F#i/	.
.	.	4G/	.
=45	=45	=45	=45
0GGl	0D]	0Gl	0B-l
!!LO:LB:i:g=z
=46||	=46||	=46||	=46||
*>C	*>C	*>C	*>C
!!section: Kyrie II
!!!OMD: Kyrie II
*M3/1	*M3/1	*M3/1	*M3/1
*met(O)	*met(O)	*met(O)	*met(O)
0.r	0.r	1f	1r
.	.	1d	1r
.	.	1e	2.g/
.	.	.	4a/
=47	=47	=47	=47
0.r	1B-	1.d	4b-\
.	.	.	4a/
.	.	.	2.b-\
.	1G	.	.
.	.	.	4a/
.	.	2B-\	1g
.	1A	2.c\	.
.	.	.	2f#i/
.	.	4d\	.
=48	=48	=48	=48
1B-	1G	2e-i\	0g
.	.	1d	.
1G	1r	.	.
.	.	2g\	.
1A	1r	2e\	1cc
.	.	2f\	.
=49	=49	=49	=49
1G	1B-	2g\	1.b-
.	.	1d	.
1r	1G	.	.
.	.	2g\	4a/
.	.	.	4g/
1r	1A	2e\	1cc
.	.	2f\	.
=50	=50	=50	=50
2r	1G	4B-\	1b-
.	.	4c\	.
2G\	.	4d\	.
.	.	4e\	.
2F\	1r	4f\	2a/
.	.	4d\	.
2E\	.	1g	2g/
1D	1r	.	1a
.	.	2f#i\	.
=51	=51	=51	=51
0G	1B-	0g	1g
.	1G	.	2r
.	.	.	2b-\
1r	1A	2e\	2.cc\
.	.	2f\	.
.	.	.	4dd\
=52	=52	=52	=52
2r	1G	2.g\	2ee-i\
1B-	.	.	1dd
.	.	4f\	.
.	1r	2d\	.
2G\	.	2e-i\	2b-\
1A	1r	1c	2cc\
.	.	.	2a/
=53	=53	=53	=53
2.G\	2r	2B-\	2.b-\
.	1B-	1d	.
4F\	.	.	4a/
2D\	.	.	2f/
2E\	2G/	2B-\	2g/
1C	2A/	2c\	2r
.	2G/	[2e-i\	[2g/
=54	=54	=54	=54
2.G\	2r	4e-\]	2g/]
.	.	4d\	.
.	1B-	1d	2g/
4F\	.	.	.
2D\	.	.	2f/
2E\	2G/	2B-\	2g/
2C/	2A/	2c\	2e/
2E\	2G/	2B-\	2g/
=55	=55	=55	=55
2D\	2r	1d	2f/
1G	1B-	.	2g/
.	.	2B-\	2d/
2E\	2G/	2c\	1g
1D	1A	1d	.
.	.	.	2f/
=56	=56	=56	=56
2.G\	2G/	2B-\	2.b-\
.	1B-	1d	.
4F\	.	.	4a/
2D\	.	.	2f/
2E\	2G/	2B-\	2g/
2C/	2A/	2c\	2e/
2E\	2G/	2B-\	2g/
=57	=57	=57	=57
2D\	2r	1d	2f/
1G	1B-	.	2g/
.	.	2B-\	2d/
2E\	2G/	2c\	1g
1D	1A	[1dl	.
.	.	.	2f#i/
=58	=58	=58	=58
0.GGl	0.Gl	0.d]	0.gl
==	==	==	==
*-	*-	*-	*-
!!!RDF**kern: l=long note in original notation
!!!RDF**kern: i=editorial accidental
!!!ENC:	Jesse Rodin; Victoria Chang 2011/09/06
!!!END:	2011/09/16/
!!!EED:	Jesse Rodin
!!!EEV:	2011/09/18/
!!attribution-level: 1 (secure)
!!!ONB:	Translated from MusicXML and edited on 2011/09/18/ by Craig Sapp
!!muse2ps: T^@{OPR}^u^@{ONM}{. }@{OTL}^C^@{COM}\n@{SCT}^i2I100v85,90,85,100c90Q8
